X: 652
T: Erdi Bahar Sardı Yine...
C: Münir Nurettin Selçuk
O: Turkey
F: http://compmusic.upf.edu/node/140
N: rast--sarki--yuruksemai_ii--erdi_bahar--munir_nurettin_selcuk
N: makam= rast
N: form= sarki
N: usul= yuruksemai_ii = 6/8
M: 6/8
L: 1/16
K: C _1/4B ^f  
Q: 1/4=180
%%MIDI tuningsystem comma53
G4 G2G2 G2z2  | G4 G2.G2 .G2z2  | G4 G2G2 e2d2  | \
w:  ARANAĞME  |   |   | 
.d2.e2 .d2.c2 .B2.A2  | 
w:   | 
G4 G2G2 G2z2  | G4 G2.G2 .G2z2  | G4 G2G2 e2d2  | \
w:  ARANAĞME  |   |   | 
.d2.e2 .d2.c2 .B2.A2  | 
w:   | 
G4 G2G2 G2z2  | G4 G2A2 G2z2  | G4 G2G2 e3d  | \
w:  Er di  ba har   |  sar dı  yi ne   |  neş e  ci hâ  | 
d4 e2c2 B2A2  | G4 G2G2 G2z2  | 
w:  nı  a  ca nım    |  Eğ le ne lim   | 
G4 G2A2 G2z2  | G4 G2G2 e3d  | d4 B2c2 d2z2  | \
w:  raks_ e de lim   |  lâ le  za ma  |  nı SAZ  | 
e2d2 c2B2 A2B2  | 
w:  Aç *  tı  bu  dem   | 
d2c2 B2A2 A4  | G4 G2G2 e3d  | d2G2 A2B2 c2d2  | \
w:  nâz_ *  i le  gül   |  gon ca  de hâ  |  nı   SAZ  | 
e2d2 c2B2 A2B2  | 
w:  Din *  le ye lim   | 
d2c2 B2A2 A4  | D4 D2D2 B3A  | G4 d2d2 d4  | \
w:  bül *  bü lü  gel   |  lâ le  za ma  |  nı  a  ca  nım    | 
G4 d2d2 d4  | e4 f2g2 e4  | 
w:  Fasl_ ı  ba har  |  sey ri ne  çık   | 
d4 c2B2 e3d  | d4 e2c2 B2A2  | G4 d2d2 d4  | \
w:  sen  bi ze  gel   |  de  a ca  nım    |  Fasl_ ı  ba har  | 
e4 f2g2 e4  | d4 c2B2 e3d  | 
w:  sey ri ne  çık   |  sen  bi ze  gel   | 
d4 B2c2 d2z2  | e2d2 c2B2 A2B2  | d2c2 B2A2 A4  | \
w:  de   SAZ  |  Gön *  lü mü zü   |  şâd_ *  e de lim   | 
G4 G2G2 e3d  | 
w:  bezm_ i  e mel  | 
d2G2 A2B2 c2d2  | e2d2 c2B2 A2B2  | d2c2 B2A2 A4  | \
w:  de   SAZ  |  Gön *  lü mü zü   |  şâd_ *  e de lim   | 
D4 D2D2 B3A  | 
w:  bezm_ i  e mel  | 
G4 g2g2 g4  | d4 g2g2 g4  | f2e2 f2g2 e2d2  | \
w:  de   SAZ  |  Bağ da  ba har   |  sî *  ne de  yâr   | 
d4 c2B2 e3d  | d4 e2c2 B2A2  | 
w:  bâ de ler_ el  |  de  a  ca nım    | 
d4 g2g2 g4  | f2e2 f2g2 e2d2  | d4 c2B2 e3d  | \
w:  Bağ da  ba har   |  sî *  ne de  yâr   |  bâ de ler_ el  | 
d4 B2c2 d4  | e2d2 c2B2 A2B2  | 
w:  de   SAZ  |  Mey_ *  i çe lim   | 
d2c2 B2A2 A4  | G4 G2G2 e3d  | d2G2 A2B2 c2d2  | \
w:  eğ *  le ne lim   |  lâ le  za ma  |  nı   SAZ  | 
e2d2 c2B2 A2B2  | 
w:  Eğ *  le ne lim   | 
d2c2 B2A2 A4  | D4 D2D2 B3A  | G6z6  | |


